shared/images/iconfont/kb-iconfont-folder-new-16.svg

<?xml version="1.0" encoding="UTF-8"?>
<svg width="16px" height="16px" viewBox="0 0 16 16" version="1.1" xmlns="http://www.w3.org/2000/svg" xmlns:xlink="http://www.w3.org/1999/xlink">
    <!-- Generator: sketchtool 49.3 (51167) - http://www.bohemiancoding.com/sketch -->
    <title>00FDEF93-5C12-45F0-A961-007B75F0C2F5</title>
    <desc>Created with sketchtool.</desc>
    <defs></defs>
    <g id="Colors,-icons" stroke="none" stroke-width="1" fill="none" fill-rule="evenodd">
        <g id="Icons-2" transform="translate(-338.000000, -368.000000)">
            <g id="kb-iconfont-folder-new-16" transform="translate(338.000000, 368.000000)">
                <g id="kb-iconfont-folder-new">
                    <rect id="icon-area" fill="#FFFFFF" opacity="0" x="0" y="0" width="16" height="16"></rect>
                    <path d="M7.33324667,3 L5.9999,1 L1.33334667,1 C0.596974887,1.00003682 3.68158279e-05,1.59697489 0,2.33334667 L0,13.5 C3.68158279e-05,14.2363718 0.596974887,14.9999632 1.33334667,15 L14.6666533,15 C15.4030251,14.9999632 15.9999632,14.2363718 16,13.5 L16,4.5 C15.9999632,3.76362822 15.4030251,3.00003682 14.6666533,3 L7.33324667,3 Z M10.1076195,9.93224912 L8.9500565,9.93224912 L8.9500565,11.0732866 C8.9500565,11.5979552 8.52472858,12.0232831 8.00006,12.0232831 C7.47539142,12.0232831 7.0500635,11.5979552 7.0500635,11.0732866 L7.0500635,9.93224912 L5.92112249,9.93224912 C5.39645391,9.93224912 4.97112599,9.5069212 4.97112599,8.98225262 C4.97112599,8.45758404 5.39645391,8.03225612 5.92112249,8.03225612 L7.0500635,8.03225612 L7.0500635,6.9499965 C7.0500635,6.42532792 7.47539142,6 8.00006,6 C8.52472858,6 8.9500565,6.42532792 8.9500565,6.9499965 L8.9500565,8.03225612 L10.1076195,8.03225612 C10.6322881,8.03225612 11.057616,8.45758404 11.057616,8.98225262 C11.057616,9.5069212 10.6322881,9.93224912 10.1076195,9.93224912 Z" id="folder" fill="#000000" fill-rule="nonzero"></path>
                </g>
            </g>
        </g>
    </g>
</svg>

<svg xmlns="http://www.w3.org/2000/svg" width="16" height="16" viewBox="0 0 16 16">
    <path fill="#000" fill-rule="nonzero" d="M7.333 3L6 1H1.333C.597 1 0 1.597 0 2.333V13.5c0 .736.597 1.5 1.333 1.5h13.334c.736 0 1.333-.764 1.333-1.5v-9c0-.736-.597-1.5-1.333-1.5H7.333zm2.775 6.932H8.95v1.141a.95.95 0 1 1-1.9 0v-1.14H5.921a.95.95 0 1 1 0-1.9h1.13V6.95a.95.95 0 1 1 1.9 0v1.082h1.157a.95.95 0 1 1 0 1.9z"/>
</svg>
